X:1
T:Title
%%score { 1 | 2 }
L:1/8
M:4/4
K:Bb
V:1 treble nm="Grand Piano"
V:2 bass 
V:1
 z4 z2 z[Q:1/4=86] [DF] | [B,D][CE][_D=E][=DF] [_EG] [DF]2 [DB] | [Fd][Ge][Ec][Fd] [DB]3 [FB] | %3
 [GB][^Fc][GB][EG] [DB] [D=F]2 [FB] | [=EB][EG][Ec][Ed] [_Ec]3 [DF] | %5
 [B,D][CE][_D=E][=DF] [_EG] [DF]2 [DB] | [Fd][Ge]cd B3 B | [Gc][GB][^FA][GB] [=Fd] [DF]2 [Fd] | %8
[M:7/8] edd>c [DB]3 |[M:1/8] F |[M:4/4] e2 e>d d c2 F | [Fd][Fd][Fd][Ec] [DB]3 [FB] | BAAc G G2 A | %13
 [DA][DG][DG][DB] [DF]3 F | e2 e>d d c2 F | [Fd][Fd]dc B3 B | %16
[M:17/16] [Gc][Gc][Gd][Gd][Ge][EG]3/2AB | %17
[M:15/16] Fd/-dd/-[Q:1/4=79]dc/ [DB]3[Q:1/4=84][Q:1/4=82][Q:1/4=81][Q:1/4=77][Q:1/4=75][Q:1/4=73][Q:1/4=72][Q:1/4=70][Q:1/4=68][Q:1/4=66] |] %18
V:2
 z4 z2 z [B,,B,] | [B,,F,][B,,F,][B,,G,][B,,F,] [B,,B,] [B,,B,]2 [B,,F,] | %2
 [B,,B,][B,,B,][F,A,][F,A,] [B,,B,]3 [D,B,] | [E,B,][E,A,][E,B,][E,B,] [B,,B,] [B,,B,]2 [D,B,] | %4
 [C,C][C,C][C,B,][C,B,] [F,A,]3 [B,,B,] | [B,,F,][B,,F,][B,,G,][B,,F,] [B,,B,] [B,,B,]2 [B,,F,] | %6
 [B,,B,][B,,B,][F,A,E][F,A,F] [G,B,D]3 [G,B,D] | [E,E][E,E][E,C][E,B,] [B,,B,] [B,,B,]2 [B,,B,] | %8
[M:7/8] [F,CF][F,B,F][F,A,F]>[F,A,E] [B,,B,]3 |[M:1/8] [D,B,] | %10
[M:4/4] [F,CF]2 [F,CF]>[F,B,F] [F,B,F] [F,A,F]2 [F,A,] | %11
 [B,,B,][D,B,][F,B,][F,A,] [B,,B,]3 [D,B,] | [F,CE][F,CE][F,CE][F,A,E] [F,CE] [F,CE]2 [F,CE] | %13
 [B,,B,][B,,B,][B,,B,][B,,B,] [B,,B,]3 [D,B,] | [F,CF]2 [F,CF]>[F,B,F] [F,B,F] [F,A,F]2 [F,A,] | %15
 [D,B,][D,B,][F,B,F][^F,A,E] [G,B,D]3 [G,B,D] | %16
[M:17/16] [E,B,][E,B,][D,=B,][D,B,][C,C][C,C]3/2[=E,_B,_D][E,G,D] | %17
[M:15/16] [F,B,D][F,B,F]/-[F,B,F][F,A,F]/-[F,A,F][F,A,E]/ [B,,B,]3 |] %18

